packages/sources/assets/src/assets/web-money.svg

<svg width="58" height="40" viewBox="0 0 58 40" fill="none" xmlns="http://www.w3.org/2000/svg">
<rect x="0.5" y="0.5" width="57" height="39" rx="3.5" fill="white" stroke="#F3F3F3"/>
<path fill-rule="evenodd" clip-rule="evenodd" d="M19.9712 28.1016C20.2771 27.9429 20.7971 27.7346 21.3479 27.7346C22.6122 27.7346 23.2956 28.5873 23.2956 30.1741C23.2956 32.0277 22.3781 32.93 20.8994 32.93C20.3586 32.93 19.5225 32.7615 18.9105 32.4438V25.5238L19.9712 25.2759V28.1016ZM19.9611 32.0771C20.2872 32.216 20.6443 32.2356 20.8994 32.2356C21.654 32.2356 22.225 31.7797 22.225 30.1741C22.225 28.9145 21.7559 28.5081 21.0727 28.5081C20.6645 28.5081 20.3691 28.6171 19.9611 28.8353V32.0771ZM9.09956 27.8633H9.17098L10.5576 32.811H11.6588L13.3111 25.7812H12.1179L11.0777 31.0263H11.0067L9.58887 25.7812H8.6813L7.35567 31.0263H7.28424L6.14203 25.7812H5L6.65209 32.811H7.75318L9.09956 27.8633ZM17.83 32.4736V31.7201C17.2691 32.0473 16.7594 32.2356 16.2088 32.2356C15.1583 32.2356 14.6588 31.7099 14.6588 30.5204H17.9829V30.1537C17.9829 28.5379 17.1977 27.7346 15.9233 27.7346C14.3936 27.7346 13.6083 28.8253 13.6083 30.3321C13.6083 31.8988 14.3119 32.93 16.025 32.93C16.7594 32.93 17.3712 32.7317 17.83 32.4736ZM17.0141 29.8563H14.6793C14.7911 28.8651 15.2702 28.399 15.8926 28.399C16.4432 28.399 16.9636 28.8151 17.0141 29.8563ZM27.9867 31.3236H27.9355L25.6513 25.7812H24.4174V32.811H25.3353V27.8339H25.4269L27.5075 32.811H28.1599L30.2403 27.7148H30.3323V32.811H31.4336V25.7812H30.1689L27.9867 31.3236ZM32.5552 30.3321C32.5552 28.597 33.5342 27.7346 34.8802 27.7346C36.2264 27.7346 37.2056 28.597 37.2056 30.3321C37.2056 32.0277 36.2775 32.93 34.8802 32.93C33.483 32.93 32.5552 32.0277 32.5552 30.3321ZM36.1346 30.3321C36.1346 28.9938 35.5735 28.4288 34.8802 28.4288C34.2071 28.4288 33.6258 28.9938 33.6258 30.3321C33.6258 31.6908 34.1564 32.2356 34.8802 32.2356C35.6042 32.2356 36.1346 31.6908 36.1346 30.3321ZM40.7742 27.7346C39.602 27.7346 38.6329 28.2005 38.1741 28.4683V32.811H39.2348V28.8847C39.5508 28.7066 40.071 28.5277 40.4791 28.5277C40.9991 28.5277 41.3964 28.6666 41.3964 29.4499V32.811H42.4569V29.2216C42.4569 28.2005 41.9984 27.7346 40.7742 27.7346ZM47.6269 31.7201V32.4736C47.1682 32.7317 46.5567 32.93 45.822 32.93C44.1092 32.93 43.4054 31.8988 43.4054 30.3321C43.4054 28.8253 44.1909 27.7346 45.7203 27.7346C46.9953 27.7346 47.7807 28.5379 47.7807 30.1537V30.5204H44.4562C44.4562 31.7099 44.9558 32.2356 46.006 32.2356C46.5567 32.2356 47.0665 32.0473 47.6269 31.7201ZM44.4764 29.8563H46.8115C46.7608 28.8151 46.2403 28.399 45.6897 28.399C45.0674 28.399 44.5888 28.8651 44.4764 29.8563ZM52.8386 27.9031H51.7474L50.5844 31.5514H50.5236L49.2184 27.9031H48.0966L50.0545 32.8604C49.8094 33.5939 49.3816 34.1297 48.6881 34.1297V34.9423C49.8603 34.9423 50.4825 34.2288 50.9926 32.8604L52.8386 27.9031Z" fill="#0068A3"/>
<path fill-rule="evenodd" clip-rule="evenodd" d="M28.2356 5C29.6389 5 30.968 5.31773 32.1517 5.88183C32.3376 5.96757 32.5231 6.06191 32.709 6.16607L31.8862 6.88201L30.65 5.63932L28.5636 7.44857L27.3244 6.13363L23.4378 9.5396L25.9295 12.2093L24.9503 13.0466L27.4045 15.7203L26.4311 16.5556L29.938 20.3507L32.0197 18.4875L33.8195 20.4841C33.4615 20.7547 33.0715 21.0093 32.6419 21.2446C31.3404 21.9662 29.8362 22.3793 28.2356 22.3793C23.3128 22.3793 19.2979 18.4754 19.2979 13.6899C19.2979 8.90343 23.3128 5 28.2356 5ZM26.6067 13.1406L28.7321 11.2798L30.6459 13.3466L28.5207 15.2067L26.6067 13.1406ZM30.2435 14.8507L28.118 16.711L30.0321 18.7778L32.1575 16.917L30.2435 14.8507ZM25.086 9.61184L27.2113 7.75157L29.1246 9.81787L26.9992 11.6781L25.086 9.61184ZM30.58 7.21535L28.986 8.61042L30.4212 10.1607L32.0152 8.76508L30.58 7.21535ZM31.8182 15.0017L33.4128 13.6061L34.8479 15.1562L33.2539 16.5514L31.8182 15.0017ZM34.8141 16.7362L33.2205 18.132L34.6556 19.6812L36.2496 18.286L34.8141 16.7362ZM33.8626 10.9576L34.9253 10.0274L35.8819 11.0606L34.8197 11.9906L33.8626 10.9576ZM33.5675 6.95777L32.5048 7.88781L33.4615 8.92097L34.5243 7.99092L33.5675 6.95777ZM35.2212 14.0273L36.2839 13.0971L37.2407 14.13L36.178 15.0603L35.2212 14.0273ZM32.0492 10.3313L30.4554 11.7271L31.8909 13.2763L33.4844 11.881L32.0492 10.3313Z" fill="#0068A3"/>
</svg>

<svg width="58" height="40" fill="none" xmlns="http://www.w3.org/2000/svg"><rect x=".5" y=".5" width="57" height="39" rx="3.5" fill="#fff" stroke="#F3F3F3"/><path fill-rule="evenodd" clip-rule="evenodd" d="M19.971 28.102c.306-.16.826-.367 1.377-.367 1.264 0 1.948.852 1.948 2.44 0 1.853-.918 2.755-2.397 2.755-.54 0-1.377-.169-1.989-.486v-6.92l1.061-.248v2.826Zm-.01 3.975c.326.139.683.159.938.159.755 0 1.326-.456 1.326-2.062 0-1.26-.47-1.666-1.152-1.666-.409 0-.704.11-1.112.327v3.242ZM9.1 27.863h.071l1.387 4.948h1.1l1.653-7.03h-1.193l-1.04 5.245h-.071l-1.418-5.245H8.68l-1.325 5.245h-.072l-1.142-5.245H5l1.652 7.03h1.101L9.1 27.863Zm8.73 4.61v-.753c-.56.327-1.07.516-1.621.516-1.05 0-1.55-.526-1.55-1.716h3.324v-.366c0-1.616-.785-2.42-2.06-2.42-1.53 0-2.315 1.091-2.315 2.598 0 1.567.704 2.598 2.417 2.598.734 0 1.346-.198 1.805-.456Zm-.816-2.617H14.68c.112-.99.591-1.457 1.214-1.457.55 0 1.07.416 1.121 1.457Zm10.973 1.468h-.051L25.65 25.78h-1.234v7.03h.918v-4.977h.092l2.08 4.977h.653l2.08-5.096h.092v5.096h1.102v-7.03h-1.265l-2.182 5.543Zm4.568-.992c0-1.735.98-2.597 2.325-2.597 1.346 0 2.326.862 2.326 2.597 0 1.696-.928 2.598-2.326 2.598-1.397 0-2.325-.902-2.325-2.598Zm3.58 0c0-1.338-.561-1.903-1.255-1.903-.673 0-1.254.565-1.254 1.903 0 1.359.53 1.904 1.254 1.904s1.255-.545 1.255-1.904Zm4.64-2.597c-1.173 0-2.142.466-2.6.733v4.343h1.06v-3.926c.316-.178.836-.357 1.244-.357.52 0 .917.139.917.922v3.361h1.06v-3.59c0-1.02-.458-1.486-1.682-1.486Zm6.852 3.985v.754a3.67 3.67 0 0 1-1.805.456c-1.713 0-2.417-1.031-2.417-2.598 0-1.507.786-2.597 2.315-2.597 1.275 0 2.06.803 2.06 2.419v.366h-3.324c0 1.19.5 1.716 1.55 1.716.55 0 1.06-.189 1.62-.516Zm-3.15-1.864h2.335c-.051-1.04-.572-1.457-1.122-1.457-.623 0-1.101.466-1.214 1.457Zm8.362-1.953h-1.092l-1.163 3.648h-.06l-1.306-3.648h-1.121l1.957 4.957c-.245.734-.672 1.27-1.366 1.27v.812c1.172 0 1.794-.713 2.305-2.082l1.846-4.957ZM28.236 5c1.403 0 2.732.318 3.916.882.186.086.371.18.557.284l-.823.716-1.236-1.243-2.086 1.81-1.24-1.315-3.886 3.406 2.492 2.67-.98.837 2.454 2.673-.973.836 3.507 3.795 2.082-1.863 1.8 1.996a9.58 9.58 0 0 1-1.178.76 9.065 9.065 0 0 1-4.406 1.135c-4.923 0-8.938-3.904-8.938-8.69S23.313 5 28.236 5Zm-1.63 8.14 2.126-1.86 1.914 2.067-2.125 1.86-1.914-2.066Zm3.637 1.71-2.125 1.861 1.914 2.067 2.125-1.861-1.913-2.066Zm-5.157-5.238 2.125-1.86 1.914 2.066-2.126 1.86-1.913-2.066Zm5.494-2.397L28.986 8.61l1.435 1.55 1.594-1.395-1.435-1.55Zm1.238 7.787 1.595-1.396 1.435 1.55-1.594 1.395-1.436-1.55Zm2.996 1.734-1.593 1.396 1.435 1.55 1.594-1.396-1.436-1.55Zm-.951-5.778 1.062-.93.957 1.033-1.062.93-.957-1.033Zm-.295-4-1.063.93.956 1.033 1.063-.93-.956-1.033Zm1.653 7.07 1.063-.93.957 1.032-1.063.93-.957-1.033ZM32.05 10.33l-1.594 1.396 1.436 1.55 1.593-1.396-1.435-1.55Z" fill="#0068A3"/></svg>
